public/icons/diligent.svg

<svg width="81" height="80" viewBox="0 0 81 80" fill="none" xmlns="http://www.w3.org/2000/svg">
<rect x="1.69995" y="1.5" width="77" height="77" rx="38.5" fill="#E8F1FC"/>
<rect x="1.69995" y="1.5" width="77" height="77" rx="38.5" stroke="#093160" stroke-width="3"/>
<path fill-rule="evenodd" clip-rule="evenodd" d="M45.3667 27.5V23.3333H37.0334V27.5H45.3667ZM24.5334 31.6667V54.5833H57.8667V31.6667H24.5334ZM57.8667 27.5C60.1792 27.5 62.0334 29.3542 62.0334 31.6667V54.5833C62.0334 56.8958 60.1792 58.75 57.8667 58.75H24.5334C22.2209 58.75 20.3667 56.8958 20.3667 54.5833L20.3875 31.6667C20.3875 29.3542 22.2209 27.5 24.5334 27.5H32.8667V23.3333C32.8667 21.0208 34.7209 19.1667 37.0334 19.1667H45.3667C47.6792 19.1667 49.5334 21.0208 49.5334 23.3333V27.5H57.8667Z" fill="#093160"/>
</svg>

<svg xmlns="http://www.w3.org/2000/svg" width="81" height="80" fill="none"><rect width="77" height="77" x="1.7" y="1.5" fill="#E8F1FC" rx="38.5"/><rect width="77" height="77" x="1.7" y="1.5" stroke="#093160" stroke-width="3" rx="38.5"/><path fill="#093160" fill-rule="evenodd" d="M45.367 27.5v-4.167h-8.334V27.5zm-20.834 4.167v22.916h33.334V31.667zM57.867 27.5a4.15 4.15 0 0 1 4.166 4.167v22.916a4.15 4.15 0 0 1-4.166 4.167H24.533a4.15 4.15 0 0 1-4.166-4.167l.02-22.916c0-2.313 1.834-4.167 4.146-4.167h8.334v-4.167a4.15 4.15 0 0 1 4.166-4.166h8.334a4.15 4.15 0 0 1 4.166 4.166V27.5z" clip-rule="evenodd"/></svg>
